!!!SOCIAL_FUNCTION:	love songs
!!!PDT:	1918

Specific Region: Dakotas, Minnesota, Montana, Nebraska
!!!REG: Dakotas and Montana
!!!LING_GROUP: Siouan
!!!LANG: Tone
!!!OTL@ENG: Come
!!!ONM: No. 232
**kern
*Imale
*clefF4
*k[f#]
*M3/4
*MM88
8.e
16g
=1
8g
8e
8.e
16e
16f#
8.e
=2
12B
12B
12B
4B
8.B
16e
=3||
*M2/4
16e
8.B
8.A
16A
=4
8.A
16G
16A
8.G
=5||
*M3/4
12E
12E
12E
8E
8G
8G
8G
=6
12G
12G
12G
8.G
16A
8G
8E
=7
12G
12G
12G
4G
8.B
16e
=8||
*M2/4
8e
8B
8.A
16A
=9
8.A
16G
(16A
8.G)
=10||
*M3/4
12E
12E
12E
12E
12E
12E
4E
=11||
*M2/4
12E
12E
12E
12E
12E
12E
=12||
*M3/4
12E
12E
12E
4E
8.e
16g
=13
8g
8e
8.e
16e
8f#
16e
16e
=14
12B
12B
12B
4B
8.B
16e
=||
8e
8B
8.A
16A
=
8.A
16G
(16A
8.G)
=15||
*M3/4
12E
12E
12E
8E
8G
8G
8G
=16
4G
8.G
16A
8G
8E
=17
12G
12G
12G
4G
8.B
16e
=18||
*M2/4
8e
8B
8.A
16A
=19
8.A
16G
(16A
8.G)
=20
12E
12E
12E
12E
12E
12E
=21
4E
4r
==
*-
!!!CNT: Native American -- Sioux
!!!MRD: 1911/07//-1914///
!!!OCL: Frances Densmore
!!!YOR1: Teton Sioux Music, Bulletin 61,
!!!YOR2: Bureau of American Ethnology, Smithsonian Institution
!!!PPR: Government Printing Office
!!!PPP: Washington, D.C.
!!!PDT: 1918///
!!!ENC: Craig Stuart Sapp
!!!END: 2002/03/25/
!!!EEV: 2002/03/31/
!!!AGN: Love Song
!!!MPN@@SIO: Shung'ka-wangbli'
!!!MPN@ENG: Dog Eagle
!!!TXO: Teton Sioux
!!!MLC: Standing Rock Reservation, South Dakota, United States of America
!!!ARL: 45.9/-100.7#
!!!catalog: Catalogue No. 659
!!!PPG: 510
!!!EFL: 237/245
!!!VTS: 3770167173
